X: 13
T:Gilsland Hornpipe
M:4/4
L:1/8
Q:200
S:Tom Hunter and Billy Ballantyne
Z:C.G.P
K:D
|:de|f2 af gfed|Bcdc BAFG|A2AB ABde|f2e2e2de|!
f2af gfed|Bcdc BAFG|A2AB ABde|f2d2d2:||!
:de|f2f2 f2 ef|g2g2 g2 fg|a2a2 afde|f2e2e2de|!
f2af gfed|Bcdc BAFG|A2AB ABde|f2d2d2:||
